app/assets/images/phone.svg

<svg width="24" height="24" viewBox="0 0 24 24" fill="none" xmlns="http://www.w3.org/2000/svg">
<path d="M6.67836 1H3.31579C2.03681 1 1 2.03681 1 3.31579C1 14.1871 9.81292 23 20.6842 23C21.9632 23 23 21.9632 23 20.6842V17.3216C23 16.3221 22.3915 15.4232 21.4634 15.052L18.242 13.7635C17.4084 13.43 16.459 13.5804 15.7693 14.1552L14.9371 14.8487C13.9659 15.6581 12.5377 15.5933 11.6437 14.6993L9.3007 12.3563C8.40672 11.4623 8.34194 10.0341 9.15131 9.06288L9.84478 8.2307C10.4196 7.54095 10.57 6.5916 10.2365 5.75796L8.94797 2.5366C8.57675 1.60855 7.67791 1 6.67836 1Z" stroke="#01049B" stroke-width="2" stroke-linecap="round" stroke-linejoin="round"/>
</svg>

<svg width="24" height="24" fill="none" xmlns="http://www.w3.org/2000/svg"><path d="M6.678 1H3.316A2.316 2.316 0 001 3.316C1 14.187 9.813 23 20.684 23A2.316 2.316 0 0023 20.684v-3.362c0-1-.608-1.899-1.537-2.27l-3.221-1.288a2.444 2.444 0 00-2.473.391l-.832.694c-.971.81-2.4.744-3.293-.15L9.3 12.356a2.444 2.444 0 01-.15-3.293l.694-.832c.575-.69.725-1.64.391-2.473L8.948 2.537A2.444 2.444 0 006.678 1z" stroke="#01049B" stroke-width="2" stroke-linecap="round" stroke-linejoin="round"/></svg>
